view/frontend/web/svg/awesomeicons6/regular/face-tired.svg

<svg xmlns="http://www.w3.org/2000/svg" fill="currentColor" viewBox="0 0 512 512"><!--! Font Awesome Free 6.4.0 by @fontawesome - https://fontawesome.com License - https://fontawesome.com/license/free (Icons: CC BY 4.0, Fonts: SIL OFL 1.1, Code: MIT License) Copyright 2023 Fonticons, Inc. --><path d="M464 256A208 208 0 1 0 48 256a208 208 0 1 0 416 0zM0 256a256 256 0 1 1 512 0A256 256 0 1 1 0 256zm176.5 64.3C196.1 302.1 223.8 288 256 288s59.9 14.1 79.5 32.3C354.5 338.1 368 362 368 384c0 5.4-2.7 10.4-7.2 13.4s-10.2 3.4-15.2 1.3l-17.2-7.5c-22.8-10-47.5-15.1-72.4-15.1s-49.6 5.2-72.4 15.1l-17.2 7.5c-4.9 2.2-10.7 1.7-15.2-1.3s-7.2-8-7.2-13.4c0-22 13.5-45.9 32.5-63.7zm-43-173.6l89.9 47.9c10.7 5.7 10.7 21.1 0 26.8l-89.9 47.9c-7.9 4.2-17.5-1.5-17.5-10.5c0-2.8 1-5.5 2.8-7.6l36-43.2-36-43.2c-1.8-2.1-2.8-4.8-2.8-7.6c0-9 9.6-14.7 17.5-10.5zM396 157.1c0 2.8-1 5.5-2.8 7.6l-36 43.2 36 43.2c1.8 2.1 2.8 4.8 2.8 7.6c0 9-9.6 14.7-17.5 10.5l-89.9-47.9c-10.7-5.7-10.7-21.1 0-26.8l89.9-47.9c7.9-4.2 17.5 1.5 17.5 10.5z"/></svg>

<svg xmlns="http://www.w3.org/2000/svg" fill="currentColor" viewBox="0 0 512 512"><!--! Font Awesome Free 6.1.1 by @fontawesome - https://fontawesome.com License - https://fontawesome.com/license/free (Icons: CC BY 4.0, Fonts: SIL OFL 1.1, Code: MIT License) Copyright 2022 Fonticons, Inc. --><path d="M176.5 320.3C196.1 302.1 223.8 288 256 288C288.2 288 315.9 302.1 335.5 320.3C354.5 338.1 368 362 368 384C368 389.4 365.3 394.4 360.8 397.4C356.2 400.3 350.5 400.8 345.6 398.7L328.4 391.1C305.6 381.2 280.9 376 256 376C231.1 376 206.4 381.2 183.6 391.1L166.4 398.7C161.5 400.8 155.8 400.3 151.2 397.4C146.7 394.4 144 389.4 144 384C144 362 157.5 338.1 176.5 320.3zM223.4 194.6C234.1 200.3 234.1 215.7 223.4 221.4L133.5 269.3C125.6 273.6 116 267.8 116 258.9C116 256.1 116.1 253.4 118.8 251.2L154.8 208L118.8 164.8C116.1 162.6 116 159.9 116 157.1C116 148.2 125.6 142.4 133.5 146.7L223.4 194.6zM393.2 164.8L357.2 208L393.2 251.2C395 253.4 396 256.1 396 258.9C396 267.8 386.4 273.6 378.5 269.3L288.6 221.4C277.9 215.7 277.9 200.3 288.6 194.6L378.5 146.7C386.4 142.4 396 148.2 396 157.1C396 159.9 395 162.6 393.2 164.8zM512 256C512 397.4 397.4 512 256 512C114.6 512 0 397.4 0 256C0 114.6 114.6 0 256 0C397.4 0 512 114.6 512 256zM256 48C141.1 48 48 141.1 48 256C48 370.9 141.1 464 256 464C370.9 464 464 370.9 464 256C464 141.1 370.9 48 256 48z"/></svg>
